X: 1
T: New Rigged Ship #1
C: trad., from Tolman/Miller NEFR
C: arr. Terry Traub, 4-28-2000
M: 6/8
L: 1/8
R: Jig
K: D
   A |\
"D"ded d2 f | ded d2 f | "A"ecA Acd | ecA ABc |\
"D"ded d2 f | "D"ded "Bm"d2 f | "A"ecA ABc | "D"d3 d2 :|
|: f |\
"D"a2 f a2 f | "Bm"ded dga | "G"b2 g b2 g | "Em"efe "A"efg |\
"D"a2 f "D/C#"a2 f | "Bm"ded "G"g3 | "A"ecA ABc | "D"d3 d2 :|
